public/assets/icons/free_action.svg

<?xml version="1.0" standalone="no"?>
<!DOCTYPE svg PUBLIC "-//W3C//DTD SVG 1.1//EN" "http://www.w3.org/Graphics/SVG/1.1/DTD/svg11.dtd" >
<svg xmlns="http://www.w3.org/2000/svg" xmlns:xlink="http://www.w3.org/1999/xlink" version="1.1" viewBox="0 -64 1024 1024" width="512" height="512">
  <g transform="matrix(1 0 0 -1 0 960)">
   <path fill="currentColor"
d="M546 721v-136h-68v-69h136v69l182 -137l-182 -137v69h-136v-69h68v-136l364 273zM171 585v-69h68v69h-68zM307 585v-69h103v69h-103zM171 380v-69h68v69h-68zM307 380v-69h103v69h-103z" />
  </g>

</svg>

<?xml version="1.0" encoding="UTF-8" standalone="no"?>
<svg
   version="1.1"
   viewBox="0 -64 1024 1024"
   width="512"
   height="512"
   id="svg753"
   sodipodi:docname="free_action.svg"
   inkscape:version="1.2.2 (732a01da63, 2022-12-09)"
   xmlns:inkscape="http://www.inkscape.org/namespaces/inkscape"
   xmlns:sodipodi="http://sodipodi.sourceforge.net/DTD/sodipodi-0.dtd"
   xmlns="http://www.w3.org/2000/svg"
   xmlns:svg="http://www.w3.org/2000/svg">
  <defs
     id="defs757" />
  <sodipodi:namedview
     id="namedview755"
     pagecolor="#ffffff"
     bordercolor="#000000"
     borderopacity="0.25"
     inkscape:showpageshadow="2"
     inkscape:pageopacity="0.0"
     inkscape:pagecheckerboard="0"
     inkscape:deskcolor="#d1d1d1"
     showgrid="false"
     inkscape:zoom="1.6191406"
     inkscape:cx="236.23643"
     inkscape:cy="256.30881"
     inkscape:window-width="1920"
     inkscape:window-height="1009"
     inkscape:window-x="-8"
     inkscape:window-y="-8"
     inkscape:window-maximized="1"
     inkscape:current-layer="svg753" />
  <g
     transform="matrix(1,0,0,-1,-28.5,896)"
     id="g751">
    <path
       fill="currentColor"
       d="M 546,721 V 585 h -68 v -69 h 136 v 69 L 796,448 614,311 v 69 H 478 v -69 h 68 V 175 L 910,448 Z M 171,585 v -69 h 68 v 69 z m 136,0 v -69 h 103 v 69 z M 171,380 v -69 h 68 v 69 z m 136,0 v -69 h 103 v 69 z"
       id="path749" />
  </g>
</svg>
